img/icons/user/infoPanel/Arrow_Down_Up.svg

<svg width="52" height="52" viewBox="0 0 52 52" fill="none" xmlns="http://www.w3.org/2000/svg">
<path d="M24.5401 35.3738C24.9306 34.9833 24.9306 34.3501 24.5401 33.9596C24.1496 33.569 23.5164 33.569 23.1259 33.9596L24.5401 35.3738ZM17.333 41.1667L16.6259 41.8738C17.0164 42.2643 17.6496 42.2643 18.0401 41.8738L17.333 41.1667ZM11.5401 33.9596C11.1496 33.569 10.5164 33.569 10.1259 33.9596C9.73538 34.3501 9.73538 34.9833 10.1259 35.3738L11.5401 33.9596ZM27.4592 16.6262C27.0687 17.0168 27.0687 17.6499 27.4592 18.0405C27.8498 18.431 28.4829 18.431 28.8734 18.0405L27.4592 16.6262ZM34.6663 10.8333L35.3734 10.1262C34.9829 9.73571 34.3498 9.73571 33.9592 10.1262L34.6663 10.8333ZM40.4592 18.0405C40.8498 18.431 41.4829 18.431 41.8734 18.0405C42.264 17.6499 42.264 17.0168 41.8734 16.6262L40.4592 18.0405ZM33.6663 41.1667C33.6663 41.719 34.1141 42.1667 34.6663 42.1667C35.2186 42.1667 35.6663 41.719 35.6663 41.1667H33.6663ZM18.333 10.8333C18.333 10.2811 17.8853 9.83334 17.333 9.83334C16.7807 9.83334 16.333 10.2811 16.333 10.8333L18.333 10.8333ZM23.1259 33.9596L16.6259 40.4596L18.0401 41.8738L24.5401 35.3738L23.1259 33.9596ZM18.0401 40.4596L11.5401 33.9596L10.1259 35.3738L16.6259 41.8738L18.0401 40.4596ZM28.8734 18.0405L35.3734 11.5405L33.9592 10.1262L27.4592 16.6262L28.8734 18.0405ZM33.9592 11.5405L40.4592 18.0405L41.8734 16.6262L35.3734 10.1262L33.9592 11.5405ZM35.6663 41.1667L35.6663 10.8333L33.6663 10.8333L33.6663 41.1667H35.6663ZM16.333 10.8333L16.333 41.1667H18.333L18.333 10.8333L16.333 10.8333Z" fill="#F56311"/>
</svg>

<svg width="52" height="52" fill="none" xmlns="http://www.w3.org/2000/svg"><path d="M24.54 35.374a1 1 0 0 0-1.414-1.414l1.414 1.414Zm-7.207 5.793-.707.707a1 1 0 0 0 1.414 0l-.707-.707ZM11.54 33.96a1 1 0 1 0-1.414 1.414l1.414-1.414Zm15.92-17.334a1 1 0 0 0 1.413 1.415l-1.414-1.415Zm7.206-5.793.707-.707a1 1 0 0 0-1.414 0l.707.707Zm5.793 7.208a1 1 0 0 0 1.414-1.415l-1.414 1.415Zm-6.793 23.126a1 1 0 0 0 2 0h-2ZM18.333 10.833a1 1 0 0 0-2 0h2Zm4.793 23.127-6.5 6.5 1.414 1.414 6.5-6.5-1.414-1.414Zm-5.086 6.5-6.5-6.5-1.414 1.414 6.5 6.5 1.414-1.414Zm10.833-22.42 6.5-6.5-1.414-1.414-6.5 6.5 1.414 1.415Zm5.086-6.5 6.5 6.5 1.414-1.414-6.5-6.5-1.414 1.415Zm1.707 29.627V10.833h-2v30.334h2ZM16.333 10.833v30.334h2V10.833h-2Z" fill="#F56311"/></svg>
